X:1
T:Title
%%score { ( 1 3 ) | 2 }
L:1/8
M:3/4
K:G
V:1 treble nm="Grand Piano"
V:3 treble 
V:2 bass 
V:1
 z2 z2[Q:1/4=94] [DB][CA] | [CA]2 [B,G]2 [DG][DF] | [DF]2 [CE]2 [EG]E | D3 D [^CE][=CF] | %4
[M:2/4] [B,G]4 |[M:1/4] [DB][CA] |[M:3/4] [CA]2 [B,G]2 [DG][DF] | [DF]2 [CE]2 [EG][Ge] | %8
 [Gd][DGB] [B,G]2 [CFA]2 |[M:2/4] [B,G]4 |[M:1/4] Bc |[M:3/4] [Bd]4 z2 | [GB]4 z2 | %13
 [B,G]2 [B,D]2 [^CA][CB] |[M:2/4] A4 |[M:1/4] BA |[M:3/4] [CA]2 [B,G]2 [DG][DF] | %17
 [DF]2 [CE]2 [EG][Ge] | [Gd][DGB] [B,G]2 [CFA]2 |[M:2/4] [G,B,G]4 |] %20
V:2
 z2 z2 [G,,G,][G,,G,] | [G,,G,]2 [G,,G,]2 [B,,G,][B,,G,] | [C,G,]2 [C,G,]2 [C,C][C,G,C] | %3
 [D,G,B,]3 [D,G,B,] [A,,A,][D,A,] |[M:2/4] [G,,G,]4 |[M:1/4] [G,,G,][G,,G,] | %6
[M:3/4] [G,,G,]2 [G,,G,]2 [B,,G,][B,,G,] | [C,G,]2 [C,G,]2 [C,C][C,C] | [D,B,]D, D,2 D,2 | %9
[M:2/4] G,4 |[M:1/4][K:treble] GA |[M:3/4] G,G, G,2 cB | G,G, G,2 [G,,G,][G,,G,] | %13
 [G,,G,]2 [G,,G,]2 [A,,E,][A,,G,] |[M:2/4] [D,F,C]4 |[M:1/4] [D,G,D][D,F,C] | %16
[M:3/4] [G,,G,]2 [G,,G,]2 [B,,G,][B,,G,] | [C,G,]2 [C,G,]2 [C,C][C,C] | [D,B,]D, D,2 D,2 | %19
[M:2/4] G,,4 |] %20
V:3
 x6 | x6 | x6 | x6 |[M:2/4] x4 |[M:1/4] x2 |[M:3/4] x6 | x6 | x6 |[M:2/4] x4 |[M:1/4] x2 | %11
[M:3/4] DD D2 ed | DD D2 [DB][CA] | x6 |[M:2/4] x4 |[M:1/4] x2 |[M:3/4] x6 | x6 | x6 |[M:2/4] x4 |] %20

